static/assets/images/networks/horizen.svg

<svg width="256" height="256" viewBox="0 0 256 256" fill="none" xmlns="http://www.w3.org/2000/svg">
<path d="M128 256C198.692 256 256 198.692 256 128C256 57.3075 198.692 0 128 0C57.3075 0 0 57.3075 0 128C0 198.692 57.3075 256 128 256Z" fill="black"/>
<path d="M198.538 77.25L184.358 99.2909C190.383 111.184 192.495 124.675 190.392 137.839C188.29 151.003 182.08 163.166 172.65 172.595C163.219 182.024 151.05 188.236 137.877 190.345C124.704 192.454 111.202 190.353 99.295 184.34L77.25 198.629C94.0083 210.684 114.513 216.386 135.095 214.714C155.676 213.043 174.99 204.107 189.58 189.506C204.17 174.905 213.084 155.592 214.725 135.024C216.366 114.456 210.628 93.9765 198.538 77.25Z" fill="url(#paint0_radial_9177_781)"/>
<path d="M127.997 171.5C138.203 171.498 148.086 167.928 155.931 161.407C163.776 154.887 169.087 145.83 170.942 135.807C157.324 132.882 143.244 132.834 129.606 135.665C115.968 138.496 103.074 144.143 91.75 152.245C95.7466 158.177 101.143 163.037 107.465 166.395C113.786 169.753 120.837 171.506 127.997 171.5Z" fill="url(#paint1_radial_9177_781)"/>
<path d="M149.304 125.47C156.728 125.47 164.129 126.265 171.383 127.842C171.184 116.425 166.509 105.544 158.365 97.5411C150.222 89.5381 139.262 85.0538 127.845 85.0538C116.428 85.0538 105.467 89.5381 97.3241 97.5411C89.1807 105.544 84.5058 116.425 84.3061 127.842C84.3082 129.79 84.4463 131.736 84.7192 133.666C78.7018 138.057 73.2191 143.138 68.383 148.804C64.2047 136.939 63.6694 124.095 66.8458 111.924C70.0222 99.7522 76.7653 88.8084 86.2084 80.4989C95.6516 72.1894 107.364 66.8937 119.839 65.2923C132.315 63.6909 144.984 65.857 156.22 71.5122L178.192 57.3065C161.413 45.2337 140.87 39.5604 120.275 41.3114C99.6788 43.0625 80.3882 52.1225 65.8877 66.8546C51.3872 81.5868 42.633 101.02 41.2066 121.643C39.7802 142.266 45.7755 162.719 58.1096 179.308C62.2125 171.921 67.192 165.058 72.9401 158.865C72.9401 158.865 81.4813 149.937 88.037 145.459C105.818 132.456 127.277 125.455 149.304 125.47Z" fill="white"/>
<defs>
<radialGradient id="paint0_radial_9177_781" cx="0" cy="0" r="1" gradientUnits="userSpaceOnUse" gradientTransform="translate(225.53 -0.173882) scale(272.092 271.878)">
<stop offset="0.1" stop-color="#26DB8D"/>
<stop offset="0.26" stop-color="#23D29A"/>
<stop offset="0.56" stop-color="#1ABBBB"/>
<stop offset="0.89" stop-color="#0E9DE5"/>
</radialGradient>
<radialGradient id="paint1_radial_9177_781" cx="0" cy="0" r="1" gradientUnits="userSpaceOnUse" gradientTransform="translate(345.771 -379.584) scale(473.058 986.593)">
<stop offset="0.1" stop-color="#26DB8D"/>
<stop offset="0.26" stop-color="#23D29A"/>
<stop offset="0.56" stop-color="#1ABBBB"/>
<stop offset="0.89" stop-color="#0E9DE5"/>
</radialGradient>
</defs>
</svg>

<svg xmlns="http://www.w3.org/2000/svg" fill="none" viewBox="0 0 256 256"><path fill="#000" d="M128 256c70.692 0 128-57.308 128-128S198.692 0 128 0 0 57.308 0 128s57.308 128 128 128"/><path fill="url(#paint0_radial_9177_781)" d="m198.538 77.25-14.18 22.04a63.23 63.23 0 0 1 6.034 38.549 63.26 63.26 0 0 1-17.742 34.756 63.37 63.37 0 0 1-73.355 11.745L77.25 198.629a87 87 0 0 0 57.845 16.085 86.97 86.97 0 0 0 54.485-25.208 86.83 86.83 0 0 0 8.958-112.256"/><path fill="url(#paint1_radial_9177_781)" d="M127.997 171.5a43.7 43.7 0 0 0 27.934-10.093 43.6 43.6 0 0 0 15.011-25.6 100.03 100.03 0 0 0-79.192 16.438 43.6 43.6 0 0 0 15.715 14.15 43.7 43.7 0 0 0 20.532 5.105"/><path fill="#fff" d="M149.304 125.47c7.424 0 14.825.795 22.079 2.372a43.545 43.545 0 0 0-87.077 0 42 42 0 0 0 .413 5.824 95.5 95.5 0 0 0-16.336 15.138 63.08 63.08 0 0 1 17.825-68.305 63.065 63.065 0 0 1 70.012-8.987l21.972-14.205a86.604 86.604 0 0 0-112.304 9.548 86.625 86.625 0 0 0-7.778 112.453 105 105 0 0 1 14.83-20.443s8.541-8.928 15.097-13.406a103.67 103.67 0 0 1 61.267-19.989"/><defs><radialGradient id="paint0_radial_9177_781" cx="0" cy="0" r="1" gradientTransform="matrix(272.092 0 0 271.878 225.53 -.174)" gradientUnits="userSpaceOnUse"><stop offset=".1" stop-color="#26DB8D"/><stop offset=".26" stop-color="#23D29A"/><stop offset=".56" stop-color="#1ABBBB"/><stop offset=".89" stop-color="#0E9DE5"/></radialGradient><radialGradient id="paint1_radial_9177_781" cx="0" cy="0" r="1" gradientTransform="matrix(473.058 0 0 986.593 345.771 -379.584)" gradientUnits="userSpaceOnUse"><stop offset=".1" stop-color="#26DB8D"/><stop offset=".26" stop-color="#23D29A"/><stop offset=".56" stop-color="#1ABBBB"/><stop offset=".89" stop-color="#0E9DE5"/></radialGradient></defs></svg>
